Newaita-dark/apps/24/gnome-todo.svg

<svg height="24" viewBox="0 0 24 24" width="24" xmlns="http://www.w3.org/2000/svg" xmlns:xlink="http://www.w3.org/1999/xlink"><linearGradient id="a" gradientUnits="userSpaceOnUse" x1="11.41125" x2="11.41125" y1="21.02545225" y2="22.01773525002"><stop offset="0" stop-opacity=".27451"/><stop offset="1" stop-opacity="0"/></linearGradient><linearGradient id="b"><stop offset="0" stop-opacity=".313726"/><stop offset=".222222" stop-opacity=".27451"/><stop offset="1" stop-opacity="0"/></linearGradient><radialGradient id="c" cx="450.908936" cy="189.579361" gradientTransform="matrix(.00000013 -.0585994 -.105479 -.00000008 38.601846 47.696499)" gradientUnits="userSpaceOnUse" r="21.166656" xlink:href="#b"/><radialGradient id="d" cx="450.908936" cy="189.579361" gradientTransform="matrix(-.00000013 .0585994 .105479 .00000008 -15.77935 -5.645609)" gradientUnits="userSpaceOnUse" r="21.166656" xlink:href="#b"/><radialGradient id="e" cx="450.908936" cy="189.579361" gradientTransform="matrix(-.00000013 -.0585994 .105479 -.00000008 -15.77935 47.696499)" gradientUnits="userSpaceOnUse" r="21.166656" xlink:href="#b"/><radialGradient id="f" cx="450.908936" cy="189.579361" gradientTransform="matrix(.00000013 .0585994 -.105479 .00000008 38.601845 -5.64561)" gradientUnits="userSpaceOnUse" r="21.166656" xlink:href="#b"/><linearGradient id="g" gradientUnits="userSpaceOnUse" x1="7.44212074998" x2="7.44212074998" y1="21.02545025" y2="2.17207850005"><stop offset="0" stop-color="#ab47bc"/><stop offset="1" stop-color="#ba68c8"/></linearGradient><linearGradient id="h"><stop offset="0" stop-color="#e0e0e0"/><stop offset="1" stop-color="#eee"/></linearGradient><linearGradient id="i" gradientUnits="userSpaceOnUse" x1="11.41125042176" x2="11.41125187502" xlink:href="#h" y1="21.02545025" y2="2.17207774998"/><linearGradient id="j" gradientUnits="userSpaceOnUse" x1="11.41122" x2="11.41122" xlink:href="#h" y1="21.02539814717" y2="2.17207757661"/><path d="m3.96875 20.953125h14.882812v1.101563h-14.882812zm0 0" fill="url(#a)"/><path d="m18.851562 21.027344h1.988282v-.996094h-1.988282zm0 0" fill="url(#c)"/><path d="m3.96875 21.027344h-1.984375v.992187h1.984375zm0 0" fill="url(#d)"/><path d="m3.96875 21.027344h-1.984375v-.996094h1.984375zm0 0" fill="url(#e)"/><path d="m18.851562 21.027344h1.988282v.992187h-1.988282zm0 0" fill="url(#f)"/><path d="m2.976562 2.171875h16.867188c.550781 0 .996094.445313.996094.992187v16.867188c0 .550781-.445313.996094-.996094.996094h-16.867188c-.546874 0-.992187-.445313-.992187-.996094v-16.867188c0-.546874.445313-.992187.992187-.992187zm0 0" fill="url(#g)"/><path d="m2.976562 2.25c-.550781 0-.992187.441406-.992187.992188v.125c0-.550782.441406-.992188.992187-.992188h16.867188c.550781 0 .996094.441406.996094.992188v-.125c0-.550782-.445313-.992188-.996094-.992188zm0 0" fill="#e6e6e6" fill-opacity=".392157"/><path d="m2.976562 20.949219c-.550781 0-.992187-.441407-.992187-.992188v-.125c0 .550781.441406.992188.992187.992188h16.867188c.550781 0 .996094-.441407.996094-.992188v.125c0 .550781-.445313.992188-.996094.992188zm0 0" fill-opacity=".196078"/><path d="m63.493937-168.671091h359.798974c11.748878 0 21.247971 9.499093 21.247971 21.164646v359.798974c0 11.748878-9.499093 21.247971-21.247971 21.247971h-359.798974c-11.665553 0-21.164646-9.499093-21.164646-21.247971v-359.798974c0-11.665553 9.499093-21.164646 21.164646-21.164646zm0 0" fill="none" stroke="#212121" stroke-linecap="round" stroke-width="3" transform="matrix(.0468795 0 0 .0468795 0 10.079087)"/><path d="m21.808594 4.628906c-.257813.007813-.507813.117188-.691406.304688l-9.746094 9.746094-3.757813-3.335938c-.265625-.246094-.644531-.328125-.992187-.214844-.34375.113282-.601563.402344-.671875.757813-.074219.355469.054687.722656.328125.960937l4.464844 3.96875c.398437.355469 1.003906.335938 1.382812-.039062l10.417969-10.421875c.296875-.289063.386719-.730469.222656-1.113281-.160156-.382813-.539063-.625-.957031-.613282zm0 0" fill="url(#i)"/><path d="m21.808594 4.628906c-.257813.007813-.507813.117188-.691406.304688l-9.746094 9.746094-3.757813-3.335938c-.320312-.296875-.792969-.347656-1.171875-.136719-.378906.214844-.578125.648438-.492187 1.078125.070312-.359375.328125-.648437.671875-.761718.347656-.113282.726562-.03125.992187.214843l3.757813 3.339844 9.746094-9.75c.183593-.1875.433593-.296875.691406-.304687.492187-.011719.921875.328124 1.019531.808593.058594-.300781-.019531-.613281-.21875-.847656s-.492187-.363281-.800781-.355469zm0 0" fill="#fff" fill-opacity=".954839"/><path d="m20.839844 8.078125-8.714844 8.714844c-.378906.378906-.984375.394531-1.382812.042969l-4.464844-3.96875c-.15625-.136719-.265625-.316407-.316406-.515626-.09375.371094.027343.761719.316406 1.011719l4.464844 3.96875c.398437.351563 1.003906.335938 1.382812-.042969l8.714844-8.714843zm0 0" fill-opacity=".235294"/><path d="m465.205575-116.259429c-5.499475.16665-10.832299 2.499761-14.748591 6.499379l-207.896814 207.896814-80.159012-71.159872c-5.666125-5.249498-13.748687-6.999331-21.164645-4.582895-7.332634 2.416436-12.832108 8.582513-14.331965 16.165123-1.583182 7.582609 1.166555 15.415194 6.999331 20.498042l95.240905 84.658582c8.499189 7.58261 21.414622 7.165983 29.497184-.833253l222.228778-222.312104c6.332728-6.166078 8.249212-15.581845 4.749546-23.747732-3.41634-8.165887-11.498902-13.33206-20.414717-13.082084zm0 0" fill="none" stroke="#212121" stroke-linecap="round" stroke-linejoin="round" stroke-width="3" transform="matrix(.0468795 0 0 .0468795 0 10.079087)"/><path d="m4.960938 3.875c-.699219 0-1.273438.574219-1.273438 1.273438v12.898437c0 .703125.574219 1.273437 1.273438 1.273437h12.898437c.703125 0 1.273437-.570312 1.273437-1.273437v-6.859375l-.5625.5625v6.296875c0 .402344-.308593.710937-.710937.710937h-12.898437c-.398438 0-.710938-.308593-.710938-.710937v-12.898437c0-.398438.3125-.710938.710938-.710938h12.898437c.402344 0 .710937.3125.710937.710938v.90625l.5625-.5625v-.34375c0-.699219-.570312-1.273438-1.273437-1.273438zm0 0" fill="url(#j)"/><path d="m4.960938 3.875c-.699219 0-1.273438.574219-1.273438 1.273438v.210937c0-.703125.574219-1.273437 1.273438-1.273437h12.898437c.703125 0 1.273437.570312 1.273437 1.273437v-.210937c0-.699219-.570312-1.273438-1.273437-1.273438zm14.171874 7.3125-.5625.5625v.210938l.5625-.5625zm-14.882812 6.859375v.210937c0 .398438.3125.710938.710938.710938h12.898437c.402344 0 .710937-.3125.710937-.710938v-.210937c0 .402344-.308593.710937-.710937.710937h-12.898437c-.398438 0-.710938-.308593-.710938-.710937zm0 0" fill="#fafafa"/><path d="m4.960938 4.464844c-.398438 0-.710938.3125-.710938.710937v.375c0-.402343.3125-.714843.710938-.714843h12.898437c.402344 0 .710937.3125.710937.714843v-.375c0-.398437-.308593-.710937-.710937-.710937zm14.171874 1.054687-.5625.5625v.375l.5625-.5625v-.34375c0-.011719 0-.019531 0-.03125zm-15.445312 12.558594v.371094c0 .699219.574219 1.273437 1.273438 1.273437h12.898437c.703125 0 1.273437-.574218 1.273437-1.273437v-.371094c0 .699219-.570312 1.273437-1.273437 1.273437h-12.898437c-.699219 0-1.273438-.574218-1.273438-1.273437zm0 0" fill-opacity=".235294"/><path d="m399.961827 312.411128c-56.372573 0-102.667367 46.294794-102.667367 102.667366v1039.900749c0 56.687503 46.294794 102.667367 102.667367 102.667367h1039.900749c56.687503 0 102.667366-45.979864 102.667366-102.667367v-553.018084l-45.350002 45.350002v507.668082c0 32.437849-24.879515 57.317364-57.317364 57.317364h-1039.900749c-32.122919 0-57.317365-24.879515-57.317365-57.317364v-1039.900749c0-32.122918 25.194446-57.317364 57.317365-57.317364h1039.900749c32.437849 0 57.317364 25.194446 57.317364 57.317364v73.063893l45.350002-45.350003v-27.71389c0-56.372572-45.979863-102.667366-102.667366-102.667366zm0 0" fill="none" stroke="#212121" stroke-linecap="round" stroke-linejoin="round" stroke-width="11.338583" transform="scale(.0124035)"/></svg>

<?xml version="1.0" encoding="UTF-8"?>
<svg xmlns="http://www.w3.org/2000/svg" xmlns:xlink="http://www.w3.org/1999/xlink" width="24px" height="24px" viewBox="0 0 24 24" version="1.1">
<defs>
<linearGradient id="linear0" gradientUnits="userSpaceOnUse" x1="254" y1="233.5" x2="254" y2="254.666672" gradientTransform="matrix(0.0468795,0,0,0.0468795,-0.496143,10.079089)">
<stop offset="0" style="stop-color:rgb(0%,0%,0%);stop-opacity:0.27451;"/>
<stop offset="1" style="stop-color:rgb(0%,0%,0%);stop-opacity:0;"/>
</linearGradient>
<radialGradient id="radial0" gradientUnits="userSpaceOnUse" cx="450.908936" cy="189.579361" fx="450.908936" fy="189.579361" r="21.166656" gradientTransform="matrix(0.000000130628,-0.0585994,-0.105479,-0.0000000761539,38.601846,47.696499)">
<stop offset="0" style="stop-color:rgb(0%,0%,0%);stop-opacity:0.313726;"/>
<stop offset="0.222222" style="stop-color:rgb(0%,0%,0%);stop-opacity:0.27451;"/>
<stop offset="1" style="stop-color:rgb(0%,0%,0%);stop-opacity:0;"/>
</radialGradient>
<radialGradient id="radial1" gradientUnits="userSpaceOnUse" cx="450.908936" cy="189.579361" fx="450.908936" fy="189.579361" r="21.166656" gradientTransform="matrix(-0.000000130628,0.0585994,0.105479,0.0000000761539,-15.77935,-5.645609)">
<stop offset="0" style="stop-color:rgb(0%,0%,0%);stop-opacity:0.313726;"/>
<stop offset="0.222222" style="stop-color:rgb(0%,0%,0%);stop-opacity:0.27451;"/>
<stop offset="1" style="stop-color:rgb(0%,0%,0%);stop-opacity:0;"/>
</radialGradient>
<radialGradient id="radial2" gradientUnits="userSpaceOnUse" cx="450.908936" cy="189.579361" fx="450.908936" fy="189.579361" r="21.166656" gradientTransform="matrix(-0.000000130628,-0.0585994,0.105479,-0.0000000761539,-15.77935,47.696499)">
<stop offset="0" style="stop-color:rgb(0%,0%,0%);stop-opacity:0.313726;"/>
<stop offset="0.222222" style="stop-color:rgb(0%,0%,0%);stop-opacity:0.27451;"/>
<stop offset="1" style="stop-color:rgb(0%,0%,0%);stop-opacity:0;"/>
</radialGradient>
<radialGradient id="radial3" gradientUnits="userSpaceOnUse" cx="450.908936" cy="189.579361" fx="450.908936" fy="189.579361" r="21.166656" gradientTransform="matrix(0.000000130628,0.0585994,-0.105479,0.0000000761539,38.601845,-5.64561)">
<stop offset="0" style="stop-color:rgb(0%,0%,0%);stop-opacity:0.313726;"/>
<stop offset="0.222222" style="stop-color:rgb(0%,0%,0%);stop-opacity:0.27451;"/>
<stop offset="1" style="stop-color:rgb(0%,0%,0%);stop-opacity:0;"/>
</radialGradient>
<linearGradient id="linear1" gradientUnits="userSpaceOnUse" x1="169.333328" y1="233.5" x2="169.333328" y2="-168.666656" gradientTransform="matrix(0.0468795,0,0,0.0468795,-0.496141,10.079087)">
<stop offset="0" style="stop-color:rgb(67.058825%,27.843139%,73.725492%);stop-opacity:1;"/>
<stop offset="1" style="stop-color:rgb(72.941178%,40.784314%,78.431374%);stop-opacity:1;"/>
</linearGradient>
<linearGradient id="linear2" gradientUnits="userSpaceOnUse" x1="243.416641" y1="233.5" x2="243.416672" y2="-168.666672" gradientTransform="matrix(0.0468795,0,0,0.0468795,0,10.079087)">
<stop offset="0" style="stop-color:rgb(87.843138%,87.843138%,87.843138%);stop-opacity:1;"/>
<stop offset="1" style="stop-color:rgb(93.333334%,93.333334%,93.333334%);stop-opacity:1;"/>
</linearGradient>
<linearGradient id="linear3" gradientUnits="userSpaceOnUse" x1="920" y1="1695.118164" x2="920" y2="175.118118" gradientTransform="matrix(0.0124035,0,0,0.0124035,0,0.00000000000000141)">
<stop offset="0" style="stop-color:rgb(87.843138%,87.843138%,87.843138%);stop-opacity:1;"/>
<stop offset="1" style="stop-color:rgb(93.333334%,93.333334%,93.333334%);stop-opacity:1;"/>
</linearGradient>
</defs>
<g id="surface1">
<path style=" stroke:none;fill-rule:nonzero;fill:url(#linear0);" d="M 3.96875 20.953125 L 18.851562 20.953125 L 18.851562 22.054688 L 3.96875 22.054688 Z M 3.96875 20.953125 "/>
<path style=" stroke:none;fill-rule:nonzero;fill:url(#radial0);" d="M 18.851562 21.027344 L 20.839844 21.027344 L 20.839844 20.03125 L 18.851562 20.03125 Z M 18.851562 21.027344 "/>
<path style=" stroke:none;fill-rule:nonzero;fill:url(#radial1);" d="M 3.96875 21.027344 L 1.984375 21.027344 L 1.984375 22.019531 L 3.96875 22.019531 Z M 3.96875 21.027344 "/>
<path style=" stroke:none;fill-rule:nonzero;fill:url(#radial2);" d="M 3.96875 21.027344 L 1.984375 21.027344 L 1.984375 20.03125 L 3.96875 20.03125 Z M 3.96875 21.027344 "/>
<path style=" stroke:none;fill-rule:nonzero;fill:url(#radial3);" d="M 18.851562 21.027344 L 20.839844 21.027344 L 20.839844 22.019531 L 18.851562 22.019531 Z M 18.851562 21.027344 "/>
<path style=" stroke:none;fill-rule:nonzero;fill:url(#linear1);" d="M 2.976562 2.171875 L 19.84375 2.171875 C 20.394531 2.171875 20.839844 2.617188 20.839844 3.164062 L 20.839844 20.03125 C 20.839844 20.582031 20.394531 21.027344 19.84375 21.027344 L 2.976562 21.027344 C 2.429688 21.027344 1.984375 20.582031 1.984375 20.03125 L 1.984375 3.164062 C 1.984375 2.617188 2.429688 2.171875 2.976562 2.171875 Z M 2.976562 2.171875 "/>
<path style=" stroke:none;fill-rule:nonzero;fill:rgb(90.196079%,90.196079%,90.196079%);fill-opacity:0.392157;" d="M 2.976562 2.25 C 2.425781 2.25 1.984375 2.691406 1.984375 3.242188 L 1.984375 3.367188 C 1.984375 2.816406 2.425781 2.375 2.976562 2.375 L 19.84375 2.375 C 20.394531 2.375 20.839844 2.816406 20.839844 3.367188 L 20.839844 3.242188 C 20.839844 2.691406 20.394531 2.25 19.84375 2.25 Z M 2.976562 2.25 "/>
<path style=" stroke:none;fill-rule:nonzero;fill:rgb(0%,0%,0%);fill-opacity:0.196078;" d="M 2.976562 20.949219 C 2.425781 20.949219 1.984375 20.507812 1.984375 19.957031 L 1.984375 19.832031 C 1.984375 20.382812 2.425781 20.824219 2.976562 20.824219 L 19.84375 20.824219 C 20.394531 20.824219 20.839844 20.382812 20.839844 19.832031 L 20.839844 19.957031 C 20.839844 20.507812 20.394531 20.949219 19.84375 20.949219 Z M 2.976562 20.949219 "/>
<path style="fill:none;stroke-width:3;stroke-linecap:round;stroke-linejoin:miter;stroke:rgb(12.941177%,12.941177%,12.941177%);stroke-opacity:1;stroke-miterlimit:4;" d="M 63.493937 -168.671091 L 423.292911 -168.671091 C 435.041789 -168.671091 444.540882 -159.171998 444.540882 -147.506445 L 444.540882 212.292529 C 444.540882 224.041407 435.041789 233.5405 423.292911 233.5405 L 63.493937 233.5405 C 51.828384 233.5405 42.329291 224.041407 42.329291 212.292529 L 42.329291 -147.506445 C 42.329291 -159.171998 51.828384 -168.671091 63.493937 -168.671091 Z M 63.493937 -168.671091 " transform="matrix(0.0468795,0,0,0.0468795,0,10.079087)"/>
<path style=" stroke:none;fill-rule:nonzero;fill:url(#linear2);" d="M 21.808594 4.628906 C 21.550781 4.636719 21.300781 4.746094 21.117188 4.933594 L 11.371094 14.679688 L 7.613281 11.34375 C 7.347656 11.097656 6.96875 11.015625 6.621094 11.128906 C 6.277344 11.242188 6.019531 11.53125 5.949219 11.886719 C 5.875 12.242188 6.003906 12.609375 6.277344 12.847656 L 10.742188 16.816406 C 11.140625 17.171875 11.746094 17.152344 12.125 16.777344 L 22.542969 6.355469 C 22.839844 6.066406 22.929688 5.625 22.765625 5.242188 C 22.605469 4.859375 22.226562 4.617188 21.808594 4.628906 Z M 21.808594 4.628906 "/>
<path style=" stroke:none;fill-rule:nonzero;fill:rgb(100%,100%,100%);fill-opacity:0.954839;" d="M 21.808594 4.628906 C 21.550781 4.636719 21.300781 4.746094 21.117188 4.933594 L 11.371094 14.679688 L 7.613281 11.34375 C 7.292969 11.046875 6.820312 10.996094 6.441406 11.207031 C 6.0625 11.421875 5.863281 11.855469 5.949219 12.285156 C 6.019531 11.925781 6.277344 11.636719 6.621094 11.523438 C 6.96875 11.410156 7.347656 11.492188 7.613281 11.738281 L 11.371094 15.078125 L 21.117188 5.328125 C 21.300781 5.140625 21.550781 5.03125 21.808594 5.023438 C 22.300781 5.011719 22.730469 5.351562 22.828125 5.832031 C 22.886719 5.53125 22.808594 5.21875 22.609375 4.984375 C 22.410156 4.75 22.117188 4.621094 21.808594 4.628906 Z M 21.808594 4.628906 "/>
<path style=" stroke:none;fill-rule:nonzero;fill:rgb(0%,0%,0%);fill-opacity:0.235294;" d="M 20.839844 8.078125 L 12.125 16.792969 C 11.746094 17.171875 11.140625 17.1875 10.742188 16.835938 L 6.277344 12.867188 C 6.121094 12.730469 6.011719 12.550781 5.960938 12.351562 C 5.867188 12.722656 5.988281 13.113281 6.277344 13.363281 L 10.742188 17.332031 C 11.140625 17.683594 11.746094 17.667969 12.125 17.289062 L 20.839844 8.574219 Z M 20.839844 8.078125 "/>
<path style="fill:none;stroke-width:3;stroke-linecap:round;stroke-linejoin:round;stroke:rgb(12.941177%,12.941177%,12.941177%);stroke-opacity:1;stroke-miterlimit:4;" d="M 465.205575 -116.259429 C 459.7061 -116.092779 454.373276 -113.759668 450.456984 -109.76005 L 242.56017 98.136764 L 162.401158 26.976892 C 156.735033 21.727394 148.652471 19.977561 141.236513 22.393997 C 133.903879 24.810433 128.404405 30.97651 126.904548 38.55912 C 125.321366 46.141729 128.071103 53.974314 133.903879 59.057162 L 229.144784 143.715744 C 237.643973 151.298354 250.559406 150.881727 258.641968 142.882491 L 480.870746 -79.429613 C 487.203474 -85.595691 489.119958 -95.011458 485.620292 -103.177345 C 482.203952 -111.343232 474.12139 -116.509405 465.205575 -116.259429 Z M 465.205575 -116.259429 " transform="matrix(0.0468795,0,0,0.0468795,0,10.079087)"/>
<path style=" stroke:none;fill-rule:nonzero;fill:url(#linear3);" d="M 4.960938 3.875 C 4.261719 3.875 3.6875 4.449219 3.6875 5.148438 L 3.6875 18.046875 C 3.6875 18.75 4.261719 19.320312 4.960938 19.320312 L 17.859375 19.320312 C 18.5625 19.320312 19.132812 18.75 19.132812 18.046875 L 19.132812 11.1875 L 18.570312 11.75 L 18.570312 18.046875 C 18.570312 18.449219 18.261719 18.757812 17.859375 18.757812 L 4.960938 18.757812 C 4.5625 18.757812 4.25 18.449219 4.25 18.046875 L 4.25 5.148438 C 4.25 4.75 4.5625 4.4375 4.960938 4.4375 L 17.859375 4.4375 C 18.261719 4.4375 18.570312 4.75 18.570312 5.148438 L 18.570312 6.054688 L 19.132812 5.492188 L 19.132812 5.148438 C 19.132812 4.449219 18.5625 3.875 17.859375 3.875 Z M 4.960938 3.875 "/>
<path style=" stroke:none;fill-rule:nonzero;fill:rgb(98.039216%,98.039216%,98.039216%);fill-opacity:1;" d="M 4.960938 3.875 C 4.261719 3.875 3.6875 4.449219 3.6875 5.148438 L 3.6875 5.359375 C 3.6875 4.65625 4.261719 4.085938 4.960938 4.085938 L 17.859375 4.085938 C 18.5625 4.085938 19.132812 4.65625 19.132812 5.359375 L 19.132812 5.148438 C 19.132812 4.449219 18.5625 3.875 17.859375 3.875 Z M 19.132812 11.1875 L 18.570312 11.75 L 18.570312 11.960938 L 19.132812 11.398438 Z M 4.25 18.046875 L 4.25 18.257812 C 4.25 18.65625 4.5625 18.96875 4.960938 18.96875 L 17.859375 18.96875 C 18.261719 18.96875 18.570312 18.65625 18.570312 18.257812 L 18.570312 18.046875 C 18.570312 18.449219 18.261719 18.757812 17.859375 18.757812 L 4.960938 18.757812 C 4.5625 18.757812 4.25 18.449219 4.25 18.046875 Z M 4.25 18.046875 "/>
<path style=" stroke:none;fill-rule:nonzero;fill:rgb(0%,0%,0%);fill-opacity:0.235294;" d="M 4.960938 4.464844 C 4.5625 4.464844 4.25 4.777344 4.25 5.175781 L 4.25 5.550781 C 4.25 5.148438 4.5625 4.835938 4.960938 4.835938 L 17.859375 4.835938 C 18.261719 4.835938 18.570312 5.148438 18.570312 5.550781 L 18.570312 5.175781 C 18.570312 4.777344 18.261719 4.464844 17.859375 4.464844 Z M 19.132812 5.519531 L 18.570312 6.082031 L 18.570312 6.457031 L 19.132812 5.894531 L 19.132812 5.550781 C 19.132812 5.539062 19.132812 5.53125 19.132812 5.519531 Z M 3.6875 18.078125 L 3.6875 18.449219 C 3.6875 19.148438 4.261719 19.722656 4.960938 19.722656 L 17.859375 19.722656 C 18.5625 19.722656 19.132812 19.148438 19.132812 18.449219 L 19.132812 18.078125 C 19.132812 18.777344 18.5625 19.351562 17.859375 19.351562 L 4.960938 19.351562 C 4.261719 19.351562 3.6875 18.777344 3.6875 18.078125 Z M 3.6875 18.078125 "/>
<path style="fill:none;stroke-width:11.338583;stroke-linecap:round;stroke-linejoin:round;stroke:rgb(12.941177%,12.941177%,12.941177%);stroke-opacity:1;stroke-miterlimit:4;" d="M 399.961827 312.411128 C 343.589254 312.411128 297.29446 358.705922 297.29446 415.078494 L 297.29446 1454.979243 C 297.29446 1511.666746 343.589254 1557.64661 399.961827 1557.64661 L 1439.862576 1557.64661 C 1496.550079 1557.64661 1542.529942 1511.666746 1542.529942 1454.979243 L 1542.529942 901.961159 L 1497.17994 947.311161 L 1497.17994 1454.979243 C 1497.17994 1487.417092 1472.300425 1512.296607 1439.862576 1512.296607 L 399.961827 1512.296607 C 367.838908 1512.296607 342.644462 1487.417092 342.644462 1454.979243 L 342.644462 415.078494 C 342.644462 382.955576 367.838908 357.76113 399.961827 357.76113 L 1439.862576 357.76113 C 1472.300425 357.76113 1497.17994 382.955576 1497.17994 415.078494 L 1497.17994 488.142387 L 1542.529942 442.792384 L 1542.529942 415.078494 C 1542.529942 358.705922 1496.550079 312.411128 1439.862576 312.411128 Z M 399.961827 312.411128 " transform="matrix(0.0124035,0,0,0.0124035,0,0)"/>
</g>
</svg>
